img/Diamond.svg

<svg width="64" height="64" viewBox="0 0 64 64" fill="none" xmlns="http://www.w3.org/2000/svg">
<g id="iconspace_Diamond">
<path id="Shape" fill-rule="evenodd" clip-rule="evenodd" d="M32 64C49.6731 64 64 49.6731 64 32C64 14.3269 49.6731 0 32 0C14.3269 0 0 14.3269 0 32C0 49.6731 14.3269 64 32 64Z" fill="#E6F0FC"/>
<path id="Shape_2" d="M15.1056 14.5528C15.275 14.214 15.6212 14 16 14H48C48.3788 14 48.725 14.214 48.8944 14.5528L52.8944 22.5528C53.0502 22.8644 53.0326 23.2346 52.848 23.53L32.848 55.53C32.4563 56.1567 31.5437 56.1567 31.152 55.53L11.152 23.53C10.9674 23.2346 10.9498 22.8644 11.1056 22.5528L15.1056 14.5528Z" fill="#154E84"/>
<path id="Shape_3" d="M16.618 16L13.1452 22.9456L32 53.1132L50.8548 22.9456L47.382 16L16.618 16Z" fill="white"/>
<path id="Shape_4" fill-rule="evenodd" clip-rule="evenodd" d="M24 23L32 55L12 23H24Z" fill="white"/>
<path id="Shape_5" fill-rule="evenodd" clip-rule="evenodd" d="M40 23L32 55L52 23H40Z" fill="white"/>
<path id="Shape_6" fill-rule="evenodd" clip-rule="evenodd" d="M24 23L32 54L15 23L24 23Z" fill="#52ABE2"/>
<path id="Shape_7" fill-rule="evenodd" clip-rule="evenodd" d="M40 23L32 54L49 23L40 23Z" fill="#52ABE2"/>
<path id="Shape_8" fill-rule="evenodd" clip-rule="evenodd" d="M24.9701 22.7575C24.8588 22.3123 24.4589 22 24 22H12C11.2146 22 10.7357 22.864 11.152 23.53L31.152 55.53C31.7557 56.4959 33.2464 55.8625 32.9701 54.7575L24.9701 22.7575ZM13.8042 24H23.2192L29.4959 49.1066L13.8042 24Z" fill="#154E84"/>
<path id="Shape_9" fill-rule="evenodd" clip-rule="evenodd" d="M52.0023 22H40.0023C39.5435 22 39.1435 22.3123 39.0322 22.7575L31.0322 54.7575C30.7559 55.8625 32.2466 56.4959 32.8503 55.53L52.8503 23.53C53.2666 22.864 52.7878 22 52.0023 22ZM40.7831 24H50.1981L34.5065 49.1066L40.7831 24Z" fill="#154E84"/>
<path id="Shape_10" d="M15.1056 14.5528C15.275 14.214 15.6212 14 16 14H48C48.3788 14 48.725 14.214 48.8944 14.5528L52.8944 22.5528C53.2269 23.2177 52.7434 24 52 24H12C11.2566 24 10.7731 23.2177 11.1056 22.5528L15.1056 14.5528Z" fill="#154E84"/>
<path id="Shape_11" d="M16.618 16L13.618 22H50.382L47.382 16L16.618 16Z" fill="#FFC200"/>
<path id="Shape_12" d="M24.7071 23.7071C24.3166 24.0976 23.6834 24.0976 23.2929 23.7071L15.2929 15.7071C14.6629 15.0771 15.1091 14 16 14H48C48.8909 14 49.3371 15.0771 48.7071 15.7071L40.7071 23.7071C40.3166 24.0976 39.6834 24.0976 39.2929 23.7071L32 16.4142L24.7071 23.7071Z" fill="#154E84"/>
<path id="Shape_13" d="M18.4142 16L24 21.5858L29.5858 16H18.4142Z" fill="white"/>
<path id="Shape_14" d="M34.4142 16L40 21.5858L45.5858 16H34.4142Z" fill="white"/>
</g>
</svg>

<svg width="64" height="64" fill="none" xmlns="http://www.w3.org/2000/svg"><path fill-rule="evenodd" clip-rule="evenodd" d="M32 64c17.673 0 32-14.327 32-32C64 14.327 49.673 0 32 0 14.327 0 0 14.327 0 32c0 17.673 14.327 32 32 32z" fill="#E6F0FC"/><path d="M15.106 14.553A1 1 0 0 1 16 14h32a1 1 0 0 1 .894.553l4 8a1 1 0 0 1-.046.977l-20 32a1 1 0 0 1-1.696 0l-20-32a1 1 0 0 1-.046-.977l4-8z" fill="#154E84"/><path d="m16.618 16-3.473 6.946L32 53.113l18.855-30.167L47.382 16H16.618z" fill="#fff"/><path fill-rule="evenodd" clip-rule="evenodd" d="m24 23 8 32-20-32h12zM40 23l-8 32 20-32H40z" fill="#fff"/><path fill-rule="evenodd" clip-rule="evenodd" d="m24 23 8 31-17-31h9zM40 23l-8 31 17-31h-9z" fill="#52ABE2"/><path fill-rule="evenodd" clip-rule="evenodd" d="M24.97 22.758A1 1 0 0 0 24 22H12a1 1 0 0 0-.848 1.53l20 32c.604.966 2.094.332 1.818-.773l-8-32zM13.804 24h9.415l6.277 25.107L13.804 24z" fill="#154E84"/><path fill-rule="evenodd" clip-rule="evenodd" d="M52.002 22h-12a1 1 0 0 0-.97.758l-8 32c-.276 1.104 1.215 1.738 1.818.772l20-32a1 1 0 0 0-.848-1.53zm-11.219 2h9.415L34.507 49.107 40.782 24z" fill="#154E84"/><path d="M15.106 14.553A1 1 0 0 1 16 14h32a1 1 0 0 1 .894.553l4 8A1 1 0 0 1 52 24H12a1 1 0 0 1-.894-1.447l4-8z" fill="#154E84"/><path d="m16.618 16-3 6h36.764l-3-6H16.618z" fill="#FFC200"/><path d="M24.707 23.707a1 1 0 0 1-1.414 0l-8-8c-.63-.63-.184-1.707.707-1.707h32c.89 0 1.337 1.077.707 1.707l-8 8a1 1 0 0 1-1.414 0L32 16.414l-7.293 7.293z" fill="#154E84"/><path d="M18.414 16 24 21.586 29.586 16H18.414zM34.414 16 40 21.586 45.586 16H34.414z" fill="#fff"/></svg>
